X:1
T: Jig Kerr's 1st No23
C:
R:Jig
Q:180
K:G
M:6/8
L:1/16
(3def|g2f2e2 d2c2B2|A2B2c2 B2A2G2|E6 A4G2|F4G2 A2F2D2|
g2f2e2 d2c2B2|A2B2c2 B2A2G2|E2F2G2 A2B2c2|B2c2A2 G4(3def|
g2f2e2 d2c2B2|A2B2c2 B2A2G2|E6 A4G2|F4G2 A2F2D2|
g2f2e2 d2c2B2|A2B2c2 B2A2G2|E2F2G2 A2B2c2|B2c2A2 G4z2|
A2B2^c2 d2e2f2|e2f2g2 f2e2d2|g2b2a2 g2f2e2|d2^c2d2 e2c2A2|
A2B2^c2 d2e2f2|e2f2g2 f2e2d2|g2f2e2 f2e2d2|e2d2^c2 d2e2f2|
g2f2e2 d2c2B2|A2B2c2 B2A2G2|E6 A4G2|F4G2 A2F2D2|
g2f2e2 d2c2B2|A2B2c2 B2A2G2|E2F2G2 A2B2c2|B2c2A2 G4||
